X: 18718
T: Ian Morrison's
R: reel
M: 4/4
K: Bmixolydian
b|B2d/c/B f2dB|f2fg fecB|A2cA e2cA|e2fe cBBc|
B2d/c/B f2dB|f2fg fece|face f2bf|a2ce fBBc|
B2ba b2fa|b2ab affg|a2bf a2ce|a2ba geeg|
face f2af|b2ab affg|afce f2bf|a2ce fBBc|
B2d/c/B f2dB|f2fg fecB|A2cA e2cA|e2fe cBBc|
B2d/c/B f2dB|f2fg fece|face f2bf|a2ce fBBc|
B2b^a b2fe|fbb^a b2=ab|eaab afec|eaab a2fe|
fbb^a b2fe|fbb^a b2=af|eBce f2bf|a2ce fBBc|
f2f2fBBc|fBBc (3edc (3BcA|(3edc (3BcA EFAB|cfec B2 (3Bcd|
f2f2 fBBc|fBfe cBAc|fBce f2bf|a2ce fBBc|
B2b^a b2fe|fbb^a b2=ab|eaab afec|eaab a2fe|
fbba b2fe|fbba b2af|eBce f2bf|a2ce fBBc||

